material/.icons/material/alarm-light.svg

<svg xmlns="http://www.w3.org/2000/svg" viewBox="0 0 24 24"><path d="M6 6.9L3.87 4.78l1.41-1.41L7.4 5.5 6 6.9M13 1v3h-2V1h2m7.13 3.78L18 6.9l-1.4-1.4 2.12-2.13 1.41 1.41M4.5 10.5v2h-3v-2h3m15 0h3v2h-3v-2M6 20h12a2 2 0 012 2H4a2 2 0 012-2m6-15a6 6 0 016 6v8H6v-8a6 6 0 016-6z"/></svg>

<?xml version="1.0" encoding="UTF-8"?><!DOCTYPE svg PUBLIC "-//W3C//DTD SVG 1.1//EN" "http://www.w3.org/Graphics/SVG/1.1/DTD/svg11.dtd"><svg xmlns="http://www.w3.org/2000/svg" xmlns:xlink="http://www.w3.org/1999/xlink" version="1.1" id="mdi-alarm-light" width="24" height="24" viewBox="0 0 24 24"><path d="M6,6.9L3.87,4.78L5.28,3.37L7.4,5.5L6,6.9M13,1V4H11V1H13M20.13,4.78L18,6.9L16.6,5.5L18.72,3.37L20.13,4.78M4.5,10.5V12.5H1.5V10.5H4.5M19.5,10.5H22.5V12.5H19.5V10.5M6,20H18A2,2 0 0,1 20,22H4A2,2 0 0,1 6,20M12,5A6,6 0 0,1 18,11V19H6V11A6,6 0 0,1 12,5Z" /></svg>
